X:6134
T:Snow Drop Schottische. GHW.031
O:england
M:4/4
L:1/8
Q:120
S:George H.Watson,MS,Swanton Abbott,Norfolk,1850-1880
R:Schottische
A:Norfolk
K:G
GA|B2 d2 c2 e2|B2c2d2 A>c|c>BA>G F>GA>B|c>BA>G F2 G>A|
B2d2c2e2|B2c2d2 A>B|c>BA>G F>D E>F|G2G2G2:|
|:e2 d>e f2 d2|d2 g>f g2|c2 c>d e2d2|f2 e2 f4|
e2 d>e f2 d2|d2 e>f g4|c2 e>d c>ed>c|B2 G2G2 z2:|
K:C
|:e4  "c>d in ms"c3d|e2 e>f d2 c2|B2 A>c d2 B2|c>dc>d g4|
e4 c2d2|e2 d>f d2B2|d2 G>A B>cd>e|c2c2c2 z2:|


